images/heart10.svg

<svg width="309" height="47" viewBox="0 0 309 47" fill="none" xmlns="http://www.w3.org/2000/svg">
<path d="M14.0649 46.6588C7.79007 46.6588 0.00634766 43.2738 0.00634766 30.5189C0.00634766 17.764 7.79007 14.439 14.0649 14.439C18.4082 14.439 21.6672 15.769 24.4418 18.6706L19.1318 23.9907C17.5033 22.2373 16.116 21.5124 14.0629 21.5124C12.1932 21.5124 10.7441 22.1774 9.59797 23.5673C8.39204 25.079 7.84787 27.1939 7.84787 30.5189C7.84787 33.8439 8.39204 36.0187 9.59797 37.5304C10.7441 38.9203 12.1932 39.5853 14.0629 39.5853C16.114 39.5853 17.5013 38.8604 19.1318 37.107L24.4418 42.3672C21.6672 45.2688 18.4082 46.6588 14.0649 46.6588Z" fill="#1F305E"/>
<path d="M49.8421 42.7885C47.9106 44.8435 44.7134 46.6568 40.0671 46.6568C35.4208 46.6568 32.2834 44.8435 30.3519 42.7885C27.5155 39.827 26.7919 36.2603 26.7919 30.5169C26.7919 24.7735 27.5155 21.2687 30.3519 18.3052C32.2834 16.2503 35.4208 14.437 40.0671 14.437C44.7134 14.437 47.9106 16.2503 49.8421 18.3052C52.6785 21.2668 53.4021 24.8334 53.4021 30.5169C53.4021 36.2004 52.6785 39.825 49.8421 42.7885ZM43.7467 22.9023C42.8417 21.9957 41.6358 21.5124 40.0671 21.5124C38.4984 21.5124 37.3523 21.9957 36.4473 22.9023C34.8188 24.5339 34.6374 27.2538 34.6374 30.5189C34.6374 33.784 34.8188 36.5639 36.4473 38.1954C37.3523 39.1021 38.4984 39.5853 40.0671 39.5853C41.6358 39.5853 42.8417 39.1021 43.7467 38.1954C45.3752 36.5639 45.5566 33.782 45.5566 30.5189C45.5566 27.2558 45.3752 24.5339 43.7467 22.9023Z" fill="#1F305E"/>
<path d="M68.4273 46.2953C61.9711 46.2953 59.2563 41.7621 59.2563 37.2888V3.25571H67.0998V36.8055C67.0998 38.6787 67.8832 39.6472 69.8745 39.6472H72.8923V46.2973H68.4273V46.2953Z" fill="#1F305E"/>
<path d="M86.7116 46.2953C80.2554 46.2953 77.5406 41.7621 77.5406 37.2888V3.25571H85.3841V36.8055C85.3841 38.6787 86.1675 39.6472 88.1587 39.6472H91.1765V46.2973H86.7116V46.2953Z" fill="#1F305E"/>
<path d="M100.762 32.9972C100.762 37.0471 103.236 40.0087 107.639 40.0087C111.079 40.0087 112.768 39.0421 114.759 37.0471L119.525 41.7022C116.328 44.9054 113.25 46.6588 107.579 46.6588C100.158 46.6588 93.0383 43.2738 93.0383 30.5189C93.0383 20.2423 98.5895 14.439 106.734 14.439C115.482 14.439 120.43 20.8474 120.43 29.4904V32.9972H100.76H100.762ZM111.984 24.2323C111.139 22.3591 109.389 20.9672 106.736 20.9672C104.083 20.9672 102.331 22.3571 101.488 24.2323C101.005 25.3806 100.824 26.2273 100.764 27.6172H112.71C112.65 26.2273 112.469 25.3806 111.986 24.2323H111.984Z" fill="#1F305E"/>
<path d="M138.836 46.6588C132.561 46.6588 124.777 43.2738 124.777 30.5189C124.777 17.764 132.561 14.439 138.836 14.439C143.179 14.439 146.438 15.769 149.213 18.6706L143.905 23.9907C142.276 22.2373 140.887 21.5124 138.836 21.5124C136.966 21.5124 135.517 22.1774 134.371 23.5673C133.163 25.079 132.621 27.1939 132.621 30.5189C132.621 33.8439 133.163 36.0187 134.371 37.5304C135.517 38.9203 136.966 39.5853 138.836 39.5853C140.887 39.5853 142.276 38.8604 143.905 37.107L149.213 42.3672C146.438 45.2688 143.179 46.6588 138.836 46.6588Z" fill="#1F305E"/>
<path d="M163.817 46.2953C157.423 46.2953 154.706 41.7621 154.706 37.2888V21.6921H151.387V15.7071H154.706V6.399H162.55V15.7071H168.101V21.6921H162.55V36.8035C162.55 38.6168 163.395 39.6453 165.266 39.6453H168.103V46.2953H163.817Z" fill="#1F305E"/>
<path d="M173.774 9.42048V3.01407H181.799V9.42048H173.774ZM173.895 46.2953V14.8024H181.739V46.2953H173.895Z" fill="#1F305E"/>
<path d="M202.736 46.2953H196.581L184.996 14.8024H193.262L199.656 34.2673L205.991 14.8024H214.257L202.732 46.2953H202.736Z" fill="#1F305E"/>
<path d="M225.182 18.4889V46.3272H220.572V18.4889H216.539V14.9622H220.572V8.99712C220.572 4.31412 223.197 0.529785 228.575 0.529785H231.903V4.50783H229.406C226.462 4.50783 225.18 6.23924 225.18 9.12692V14.9642H231.903V18.4909H225.18L225.182 18.4889Z" fill="#1F305E"/>
<path d="M237.987 5.78792V0.591695H243.171V5.78792H237.987ZM238.244 46.3272V14.7685H242.854V46.3272H238.244Z" fill="#1F305E"/>
<path d="M270.97 46.3272V42.5429C268.408 45.8779 265.464 46.7127 262.008 46.7127C258.807 46.7127 255.99 45.6223 254.324 43.9548C251.123 40.7476 250.483 35.4875 250.483 30.5489C250.483 25.6102 251.123 20.3501 254.324 17.1429C255.988 15.4754 258.805 14.385 262.008 14.385C265.464 14.385 268.344 15.1559 270.906 18.427V0.659591H275.516V46.3292H270.972L270.97 46.3272ZM263.03 18.4889C256.179 18.4889 255.091 24.3901 255.091 30.5489C255.091 36.7076 256.179 42.6068 263.03 42.6068C269.881 42.6068 270.904 36.7056 270.904 30.5489C270.904 24.3921 269.879 18.4889 263.03 18.4889Z" fill="#1F305E"/>
<path d="M287.627 31.765C287.627 38.6927 290.892 42.6687 296.91 42.6687C300.56 42.6687 302.673 41.5784 305.17 39.0761L308.307 41.834C305.106 45.0412 302.162 46.7087 296.784 46.7087C288.461 46.7087 283.019 41.7062 283.019 30.5449C283.019 20.3461 287.95 14.3811 295.951 14.3811C303.952 14.3811 308.884 20.2822 308.884 29.6482V31.765H287.627ZM303.312 23.0421C302.096 20.1564 299.278 18.2952 295.949 18.2952C292.62 18.2952 289.804 20.1544 288.586 23.0421C287.882 24.7735 287.755 25.7361 287.625 28.3022H304.271C304.144 25.7361 304.014 24.7735 303.31 23.0421H303.312Z" fill="#1F305E"/>
</svg>

<svg width="309" height="47" fill="none" xmlns="http://www.w3.org/2000/svg"><path d="M14.065 46.659C7.79 46.659.006 43.274.006 30.519s7.784-16.08 14.059-16.08c4.343 0 7.602 1.33 10.377 4.232l-5.31 5.32c-1.629-1.754-3.016-2.479-5.07-2.479-1.869 0-3.318.665-4.464 2.055-1.206 1.512-1.75 3.627-1.75 6.952s.544 5.5 1.75 7.011c1.146 1.39 2.595 2.055 4.465 2.055 2.051 0 3.438-.725 5.069-2.478l5.31 5.26c-2.775 2.902-6.034 4.292-10.377 4.292ZM49.842 42.788c-1.931 2.056-5.129 3.869-9.775 3.869-4.646 0-7.784-1.813-9.715-3.868-2.837-2.962-3.56-6.529-3.56-12.272 0-5.744.723-9.248 3.56-12.212 1.931-2.055 5.069-3.868 9.715-3.868s7.844 1.813 9.775 3.868c2.837 2.962 3.56 6.528 3.56 12.212 0 5.683-.724 9.308-3.56 12.271Zm-6.095-19.886c-.905-.906-2.111-1.39-3.68-1.39s-2.715.484-3.62 1.39c-1.628 1.632-1.81 4.352-1.81 7.617 0 3.265.182 6.045 1.81 7.676.905.907 2.051 1.39 3.62 1.39s2.775-.483 3.68-1.39c1.628-1.631 1.81-4.413 1.81-7.676s-.182-5.985-1.81-7.617ZM68.427 46.295c-6.456 0-9.17-4.533-9.17-9.006V3.256H67.1v33.55c0 1.873.783 2.841 2.775 2.841h3.017v6.65h-4.465v-.002ZM86.712 46.295c-6.457 0-9.171-4.533-9.171-9.006V3.256h7.843v33.55c0 1.873.784 2.841 2.775 2.841h3.017v6.65h-4.464v-.002ZM100.762 32.997c0 4.05 2.474 7.012 6.877 7.012 3.44 0 5.129-.967 7.12-2.962l4.766 4.655c-3.197 3.203-6.275 4.957-11.946 4.957-7.421 0-14.54-3.385-14.54-16.14 0-10.277 5.55-16.08 13.695-16.08 8.748 0 13.696 6.408 13.696 15.051v3.507h-19.67.002Zm11.222-8.765c-.845-1.873-2.595-3.265-5.248-3.265s-4.405 1.39-5.248 3.265c-.483 1.149-.664 1.995-.724 3.385h11.946c-.06-1.39-.241-2.236-.724-3.385h-.002ZM138.836 46.659c-6.275 0-14.059-3.385-14.059-16.14s7.784-16.08 14.059-16.08c4.343 0 7.602 1.33 10.377 4.232l-5.308 5.32c-1.629-1.754-3.018-2.479-5.069-2.479-1.87 0-3.319.665-4.465 2.055-1.208 1.512-1.75 3.627-1.75 6.952s.542 5.5 1.75 7.011c1.146 1.39 2.595 2.055 4.465 2.055 2.051 0 3.44-.725 5.069-2.478l5.308 5.26c-2.775 2.902-6.034 4.292-10.377 4.292ZM163.817 46.295c-6.394 0-9.111-4.533-9.111-9.006V21.692h-3.319v-5.985h3.319V6.4h7.844v9.308h5.551v5.985h-5.551v15.111c0 1.814.845 2.842 2.716 2.842h2.837v6.65h-4.286ZM173.774 9.42V3.014h8.025V9.42h-8.025Zm.121 36.875V14.802h7.844v31.493h-7.844ZM202.736 46.295h-6.155l-11.585-31.493h8.266l6.394 19.465 6.335-19.465h8.266l-11.525 31.493h.004ZM225.182 18.489v27.838h-4.61V18.49h-4.033v-3.527h4.033V8.997c0-4.683 2.625-8.467 8.003-8.467h3.328v3.978h-2.497c-2.944 0-4.226 1.731-4.226 4.619v5.837h6.723v3.527h-6.723l.002-.002ZM237.987 5.788V.592h5.184v5.196h-5.184Zm.257 40.54v-31.56h4.61v31.56h-4.61ZM270.97 46.327v-3.784c-2.562 3.335-5.506 4.17-8.962 4.17-3.201 0-6.018-1.09-7.684-2.758-3.201-3.207-3.841-8.468-3.841-13.406 0-4.939.64-10.199 3.841-13.406 1.664-1.668 4.481-2.758 7.684-2.758 3.456 0 6.336.77 8.898 4.042V.66h4.61v45.67h-4.544l-.002-.003Zm-7.94-27.838c-6.851 0-7.939 5.901-7.939 12.06 0 6.159 1.088 12.058 7.939 12.058s7.874-5.901 7.874-12.058-1.025-12.06-7.874-12.06ZM287.627 31.765c0 6.928 3.265 10.904 9.283 10.904 3.65 0 5.763-1.09 8.26-3.593l3.137 2.758c-3.201 3.207-6.145 4.875-11.523 4.875-8.323 0-13.765-5.003-13.765-16.164 0-10.199 4.931-16.164 12.932-16.164 8.001 0 12.933 5.901 12.933 15.267v2.117h-21.257Zm15.685-8.723c-1.216-2.886-4.034-4.747-7.363-4.747-3.329 0-6.145 1.86-7.363 4.747-.704 1.731-.831 2.694-.961 5.26h16.646c-.127-2.566-.257-3.529-.961-5.26h.002Z" fill="#1F305E"/></svg>
